X: 11052
P: Copyright.
M: C
L: 1/8
K: D
d>ed>e d2cB | A>BA>B A2GF |\
EFGA Bcde | f2d2 d2Bc |\
dAdA d2Ac | edcB A2Bd |\
f2df e2ce | f2d2d2 |]
fg |\
afaf a2gf | eeee e2ce |\
d'd'd'd' d'2c'b | abag f2fg |\
afaf a2fg | bbbb Hb2e^g |\
afdf gece | f2d2d2 |]


